48x48/apps/ZeroNet.svg

<svg height="48" width="48" xmlns="http://www.w3.org/2000/svg"><g fill-rule="evenodd"><path d="m37.99 21.588v13.561c.01 2.03-.404 2.023-1.96 2.939l-10.983 6.471c-1.087.611-1.152.566-2.13-.006l-12.907-7.545 4.233-5.432 9.747 5.716 7.01-4.31v-7.422zm-27.99 6.902v-13.733c0-1.96.507-2.012 2.05-2.92l10.656-6.278c1.375-.726 1.34-.74 2.484-.071l12.81 7.49-3.384 6.346-10.61-6.638-7.006 4.306v7.427z" opacity=".2"/><path d="m10 27.49v-13.733c0-1.96.507-2.012 2.05-2.92l10.656-6.278c1.375-.726 1.34-.74 2.484-.071l12.81 7.49-3.384 6.346-10.61-6.638-7.006 4.306v7.427z" fill="#b66af5"/><path d="m37.99 20.288v13.861c.01 2.03-.404 2.023-1.96 2.939l-10.983 6.471c-1.087.611-1.152.566-2.13-.006l-12.907-7.545 4.233-5.432 9.747 5.716 7.01-4.31v-7.522z" fill="#8a49ff"/><path d="m10 37 28-16.689v-7.311l-28 16.683z" opacity=".2"/><path d="m24.035 4c-.306.01-.642.196-1.33.559l-10.655 6.277c-1.543.909-2.049.961-2.049 2.922v.998c0-1.96.506-2.011 2.049-2.92l10.656-6.277c1.375-.726 1.341-.74 2.484-.07l12.405 7.251.406-.761-12.81-7.49c-.572-.335-.849-.5-1.155-.489z" fill="#f4f4f7" opacity=".2"/><path d="m10 36 28-16.689v-7.311l-28 16.483z" fill="#a551ff"/></g></svg>

<svg height="48" width="48" xmlns="http://www.w3.org/2000/svg">
    <g fill-rule="evenodd">
        <path d="M37.99 21.588v13.561c.01 2.03-.404 2.023-1.96 2.939l-10.983 6.471c-1.087.611-1.152.566-2.13-.006L10.01 37.008l4.233-5.432 9.747 5.716 7.01-4.31V25.56zM10 28.49V14.757c0-1.96.507-2.012 2.05-2.92l10.656-6.278c1.375-.726 1.34-.74 2.484-.071L38 12.978l-3.384 6.346-10.61-6.638L17 16.992v7.427z" opacity=".2"/>
        <path d="M10 27.49V13.757c0-1.96.507-2.012 2.05-2.92l10.656-6.278c1.375-.726 1.34-.74 2.484-.071L38 11.978l-3.384 6.346-10.61-6.638L17 15.992v7.427z" fill="#b66af5"/>
        <path d="M37.99 20.288v13.861c.01 2.03-.404 2.023-1.96 2.939l-10.983 6.471c-1.087.611-1.152.566-2.13-.006L10.01 36.008l4.233-5.432 9.747 5.716 7.01-4.31V24.46z" fill="#8a49ff"/>
        <path d="m10 37 28-16.689V13L10 29.683z" opacity=".2"/>
        <path d="M24.035 4c-.306.01-.642.196-1.33.559L12.05 10.836c-1.543.909-2.049.961-2.049 2.922v.998c0-1.96.506-2.011 2.049-2.92l10.656-6.277c1.375-.726 1.341-.74 2.484-.07l12.405 7.251.406-.761-12.81-7.49c-.572-.335-.849-.5-1.155-.489z" fill="#f4f4f7" opacity=".2"/>
        <path d="m10 36 28-16.689V12L10 28.483z" fill="#a551ff"/>
    </g>
</svg>
